**harm	**harte	**timestamp	**phrase	**leadinstrument	**kern
*M4/4	*M4/4	*	*	*	*
*E-:	*E-:	*	*	*	*E-:
1r;	N	0	.	r	1r;
=1	=1	=1	=1	=1	=1
*>A_intro	*>A_intro	*>A_intro	*>A_intro	*>A_intro	*>A_intro
1r	N	0.952	newline	r	1r
=2	=2	=2	=2	=2	=2
1r	N	3.855	.	r	1r
=3	=3	=3	=3	=3	=3
2II7	F:9	6.757	.	r	2F 2a 2cc 2ee-
2-VIm7	B:7	8.208	.	r	2C- 2e- 2g- 2b-
=4	=4	=4	=4	=4	=4
2V7	B-:7	9.66	.	r	2B- 2dd 2ff 2aa-
2V+7	B-:aug(b7)	11.111	.	r	2B- 2dd 2ff# 2aa-
=5	=5	=5	=5	=5	=5
*>B_verse	*>B_verse	*>B_verse	*>B_verse	*>B_verse	*>B_verse
1I	E-:maj	12.562	newline	r	1E- 1g 1b-
=6	=6	=6	=6	=6	=6
2IVm7	A-:7	15.585	.	r	2A- 2cc 2ee- 2gg
2#ivo	A:dim	17.096	.	r	2A 2cc 2ee-
=7	=7	=7	=7	=7	=7
1I	E-:maj	18.607	.	r	1E- 1g 1b-
=8	=8	=8	=8	=8	=8
1Im7	E-:7	21.63	.	r	1E- 1g 1b- 1dd
=9	=9	=9	=9	=9	=9
1IVm7	A-:7	24.652	newline	r	1A- 1cc 1ee- 1gg
=10	=10	=10	=10	=10	=10
1IVm7	A-:7	27.632	.	r	1A- 1cc 1ee- 1gg
=11	=11	=11	=11	=11	=11
1I	E-:maj	30.612	.	r	1E- 1g 1b-
=12	=12	=12	=12	=12	=12
1I	E-:maj	33.592	.	r	1E- 1g 1b-
=13	=13	=13	=13	=13	=13
2ii7	F:min7	36.571	newline	r	2F 2a- 2cc 2ee-
2-VIm7	B:7	38.118	.	r	2C- 2e- 2g- 2b-
=14	=14	=14	=14	=14	=14
1V7	B-:7	39.665	.	r	1B- 1dd 1ff 1aa-
=15	=15	=15	=15	=15	=15
2I	E-:maj	42.76	.	r	2E- 2g 2b-
2IVm7	A-:7	44.307	.	r	2A- 2cc 2ee- 2gg
=16	=16	=16	=16	=16	=16
1I	E-:maj	45.854	.	r	1E- 1g 1b-
=17	=17	=17	=17	=17	=17
*>C_verse	*>C_verse	*>C_verse	*>C_verse	*>C_verse	*>C_verse
1I	E-:maj	48.948	newline	r	1E- 1g 1b-
=18	=18	=18	=18	=18	=18
1IVm7	A-:7	52.053	.	r	1A- 1cc 1ee- 1gg
=19	=19	=19	=19	=19	=19
1I	E-:maj	55.159	.	r	1E- 1g 1b-
=20	=20	=20	=20	=20	=20
1I	E-:maj	58.265	.	r	1E- 1g 1b-
=21	=21	=21	=21	=21	=21
1IVm7	A-:7	61.37	newline	r	1A- 1cc 1ee- 1gg
=22	=22	=22	=22	=22	=22
1IVm7	A-:7	64.522	.	r	1A- 1cc 1ee- 1gg
=23	=23	=23	=23	=23	=23
1I	E-:maj	67.675	.	r	1E- 1g 1b-
=24	=24	=24	=24	=24	=24
1I	E-:maj	70.827	.	r	1E- 1g 1b-
=25	=25	=25	=25	=25	=25
1ii7	F:min7	73.979	newline	r	1F 1a- 1cc 1ee-
=26	=26	=26	=26	=26	=26
1V7	B-:7	77.201	.	r	1B- 1dd 1ff 1aa-
=27	=27	=27	=27	=27	=27
2I	E-:maj	80.422	.	r	2E- 2g 2b-
4IVm7	A-:7	82.033	.	r	4A- 4cc 4ee- 4gg
4#ivo	A:dim	82.839	.	r	4A 4cc 4ee-
=28	=28	=28	=28	=28	=28
2I	E-:maj	83.644	.	r	2E- 2g 2b-
2V7	B-:7	85.255	.	r	2B- 2dd 2ff 2aa-
=29	=29	=29	=29	=29	=29
*>C2_verse	*>C2_verse	*>C2_verse	*>C2_verse	*>C2_verse	*>C2_verse
1Im7	E-:7	86.866	newline	r	1E- 1g 1b- 1dd
=30	=30	=30	=30	=30	=30
1IV	A-:maj	90.076	.	r	1A- 1cc 1ee-
=31	=31	=31	=31	=31	=31
1Im7	E-:7	93.286	.	r	1E- 1g 1b- 1dd
=32	=32	=32	=32	=32	=32
1Im7	E-:7	96.496	.	r	1E- 1g 1b- 1dd
=33	=33	=33	=33	=33	=33
1IVm7	A-:7	99.706	newline	r	1A- 1cc 1ee- 1gg
=34	=34	=34	=34	=34	=34
1IVm7	A-:7	102.963	.	r	1A- 1cc 1ee- 1gg
=35	=35	=35	=35	=35	=35
1Im7	E-:7	106.22	.	r	1E- 1g 1b- 1dd
=36	=36	=36	=36	=36	=36
1Im7	E-:7	109.476	.	r	1E- 1g 1b- 1dd
=37	=37	=37	=37	=37	=37
1V7	B-:7	112.733	newline	r	1B- 1dd 1ff 1aa-
=38	=38	=38	=38	=38	=38
1V7	B-:7	115.995	.	r	1B- 1dd 1ff 1aa-
=39	=39	=39	=39	=39	=39
2I	E-:maj	119.258	.	r	2E- 2g 2b-
4IVm7	A-:7	120.889	.	r	4A- 4cc 4ee- 4gg
4#ivo	A:dim	121.704	.	r	4A 4cc 4ee-
=40	=40	=40	=40	=40	=40
1V7	B-:7	122.52	.	r	1B- 1dd 1ff 1aa-
=41	=41	=41	=41	=41	=41
*>C3_verse	*>C3_verse	*>C3_verse	*>C3_verse	*>C3_verse	*>C3_verse
1Im7	E-:7	125.782	newline	r	1E- 1g 1b- 1dd
=42	=42	=42	=42	=42	=42
1IVm7	A-:7	129.074	.	r	1A- 1cc 1ee- 1gg
=43	=43	=43	=43	=43	=43
1Im7	E-:7	132.365	.	r	1E- 1g 1b- 1dd
=44	=44	=44	=44	=44	=44
1Im7	E-:7	135.657	.	r	1E- 1g 1b- 1dd
=45	=45	=45	=45	=45	=45
1IVm7	A-:7	138.948	newline	r	1A- 1cc 1ee- 1gg
=46	=46	=46	=46	=46	=46
1IVm7	A-:7	142.286	.	r	1A- 1cc 1ee- 1gg
=47	=47	=47	=47	=47	=47
1Im7	E-:7	145.624	.	r	1E- 1g 1b- 1dd
=48	=48	=48	=48	=48	=48
1Im7	E-:7	148.962	.	r	1E- 1g 1b- 1dd
=49	=49	=49	=49	=49	=49
1V7	B-:7	152.3	newline	r	1B- 1dd 1ff 1aa-
=50	=50	=50	=50	=50	=50
1V7	B-:7	155.661	.	r	1B- 1dd 1ff 1aa-
=51	=51	=51	=51	=51	=51
2I	E-:maj	159.022	.	r	2E- 2g 2b-
4IVm7	A-:7	160.702	.	r	4A- 4cc 4ee- 4gg
4#ivo	A:dim	161.543	.	r	4A 4cc 4ee-
=52	=52	=52	=52	=52	=52
2I	E-:maj	162.383	.	r	2E- 2g 2b-
2V7	B-:7	164.063	.	r	2B- 2dd 2ff 2aa-
=53	=53	=53	=53	=53	=53
*>C4_verse	*>C4_verse	*>C4_verse	*>C4_verse	*>C4_verse	*>C4_verse
1Im7	E-:7	165.744	newline	r	1E- 1g 1b- 1dd
=54	=54	=54	=54	=54	=54
1Im7	E-:7	169.198	.	r	1E- 1g 1b- 1dd
=55	=55	=55	=55	=55	=55
1Im7	E-:7	172.652	.	r	1E- 1g 1b- 1dd
=56	=56	=56	=56	=56	=56
1Im7	E-:7	176.106	.	r	1E- 1g 1b- 1dd
=57	=57	=57	=57	=57	=57
1IVm7	A-:7	179.56	newline	r	1A- 1cc 1ee- 1gg
=58	=58	=58	=58	=58	=58
1IVm7	A-:7	183.055	.	r	1A- 1cc 1ee- 1gg
=59	=59	=59	=59	=59	=59
1Im7	E-:7	186.549	.	r	1E- 1g 1b- 1dd
=60	=60	=60	=60	=60	=60
1Im7	E-:7	190.044	.	r	1E- 1g 1b- 1dd
=61	=61	=61	=61	=61	=61
2ii	F:sus4(b7)	193.538	newline	r	2F 2a- 2cc
2V7	B-:7	195.274	.	r	2B- 2dd 2ff 2aa-
=62	=62	=62	=62	=62	=62
2ii	F:sus4(b7)	197.01	.	r	2F 2a- 2cc
2V7	B-:7	198.745	.	r	2B- 2dd 2ff 2aa-
=63	=63	=63	=63	=63	=63
2I	E-:maj	200.481	.	r	2E- 2g 2b-
4IVm7	A-:7	202.217	.	r	4A- 4cc 4ee- 4gg
4#ivo	A:dim	203.085	.	r	4A 4cc 4ee-
=64	=64	=64	=64	=64	=64
2I	E-:maj	203.952	.	r	2E- 2g 2b-
2V7	B-:7	205.688	.	r	2B- 2dd 2ff 2aa-
=65	=65	=65	=65	=65	=65
*>C2_verse	*>C2_verse	*>C2_verse	*>C2_verse	*>C2_verse	*>C2_verse
1Im7	E-:7	207.424	newline	r	1E- 1g 1b- 1dd
=66	=66	=66	=66	=66	=66
1Im7	E-:7	210.814	.	r	1E- 1g 1b- 1dd
=67	=67	=67	=67	=67	=67
1Im7	E-:7	214.204	.	r	1E- 1g 1b- 1dd
=68	=68	=68	=68	=68	=68
1Im7	E-:7	217.594	.	r	1E- 1g 1b- 1dd
=69	=69	=69	=69	=69	=69
1IVm7	A-:7	220.984	newline	r	1A- 1cc 1ee- 1gg
=70	=70	=70	=70	=70	=70
1IVm7	A-:7	224.392	.	r	1A- 1cc 1ee- 1gg
=71	=71	=71	=71	=71	=71
1Im7	E-:7	227.799	.	r	1E- 1g 1b- 1dd
=72	=72	=72	=72	=72	=72
1Im7	E-:7	231.207	.	r	1E- 1g 1b- 1dd
=73	=73	=73	=73	=73	=73
2ii	F:sus4(b7)	234.614	newline	r	2F 2a- 2cc
2V7	B-:7	236.397	.	r	2B- 2dd 2ff 2aa-
=74	=74	=74	=74	=74	=74
2ii	F:sus4(b7)	238.179	.	r	2F 2a- 2cc
2V7	B-:7	239.962	.	r	2B- 2dd 2ff 2aa-
=75	=75	=75	=75	=75	=75
2I	E-:maj	241.744	.	r	2E- 2g 2b-
4IVm7	A-:7	243.527	.	r	4A- 4cc 4ee- 4gg
4#ivo	A:dim	244.418	.	r	4A 4cc 4ee-
=76	=76	=76	=76	=76	=76
4I	E-:maj	245.309	.	r	4E- 4g 4b-
4V7	B-:7	246.2	.	r	4B- 4dd 4ff 4aa-
2I	E-:maj	247.092	.	r	2E- 2g 2b-
=77	=77	=77	=77	=77	=77
*>C_ending	*>C_ending	*>C_ending	*>C_ending	*>C_ending	*>C_ending
2Ic	E-:maj6/5	248.874	newline	r	2e- 2g 2B-
2I	E-:maj	250.347	.	r	2E- 2g 2b-
1r;	N	251.82	.	r	1r;
1r;	N	254.224	.	r	1r;
*-	*-	*-	*-	*-	*-
!!!OTL: Going To Chicago Blues
!!!COC: Count Basie
!!!BillboardChartDate: 1958/08/18
!!!BillboardPeak: 100
!!!BillboardWeeksOnChart: 1
!!!SampleTargetRank: 99
!!!SampleActualRank: 100
!!!SampleID#: 1149
!!!RDF**harmony: **recip + pitch class of root + harmonic quality
!!!RDF**harte: Chris Harte's syntax, used by MIREX
!!!RDF**phrase: newline = linebreak in original McGill transcription
!!!RDF**timestamp: McGill audio timestamp in seconds
!!!RDF**leadinstrument: original McGill primary instrumentation annotation
!!!RDT: 2017/01/12/
!!!ENC: Nathaniel Condit-Schultz
!!!EST: Awating manual error checking and editing.
